X: 12416
T: Far From Home
R: reel
M: 4/4
K: Gmajor
|:GEDE G3A|B2BA Bcd2|GEDE G3B|AGAB AGE2|
GEDE G2GA|B2BA Bcd2|edef gedc|BGAF G4:|
|:g3e f3d|edef edB2|gedB G2GB|AGAB AGE2|
GEDE G2GA|B3A Bcd2|edef gedc|BGAF G4:|

